icons/svg/tourist/beach_resort.svg

<?xml version="1.0" encoding="UTF-8" standalone="no"?>
<!-- Created with Inkscape (http://www.inkscape.org/) -->

<svg
   xmlns:dc="http://purl.org/dc/elements/1.1/"
   xmlns:cc="http://creativecommons.org/ns#"
   xmlns:rdf="http://www.w3.org/1999/02/22-rdf-syntax-ns#"
   xmlns:svg="http://www.w3.org/2000/svg"
   xmlns="http://www.w3.org/2000/svg"
   xmlns:sodipodi="http://sodipodi.sourceforge.net/DTD/sodipodi-0.dtd"
   xmlns:inkscape="http://www.inkscape.org/namespaces/inkscape"
   version="1.0"
   width="580"
   height="580"
   id="svg2"
   sodipodi:version="0.32"
   inkscape:version="0.48.4 r9939"
   sodipodi:docname="beach_resort.svg"
   inkscape:output_extension="org.inkscape.output.svg.inkscape">
  <metadata
     id="metadata10">
    <rdf:RDF>
      <cc:Work
         rdf:about="">
        <dc:format>image/svg+xml</dc:format>
        <dc:type
           rdf:resource="http://purl.org/dc/dcmitype/StillImage" />
        <cc:license
           rdf:resource="http://web.resource.org/cc/PublicDomain" />
        <dc:language>en</dc:language>
        <dc:title></dc:title>
      </cc:Work>
    </rdf:RDF>
  </metadata>
  <sodipodi:namedview
     inkscape:window-height="1004"
     inkscape:window-width="1920"
     inkscape:pageshadow="2"
     inkscape:pageopacity="0.0"
     guidetolerance="10.0"
     gridtolerance="10.0"
     objecttolerance="10.0"
     borderopacity="1.0"
     bordercolor="#666666"
     pagecolor="#ffffff"
     id="base"
     showgrid="false"
     inkscape:zoom="0.5"
     inkscape:cx="-50.392247"
     inkscape:cy="401.65402"
     inkscape:window-x="1680"
     inkscape:window-y="0"
     inkscape:current-layer="svg2"
     inkscape:window-maximized="1" />
  <defs
     id="defs4">
    <inkscape:perspective
       sodipodi:type="inkscape:persp3d"
       inkscape:vp_x="0 : 290 : 1"
       inkscape:vp_y="0 : 1000 : 0"
       inkscape:vp_z="580 : 290 : 1"
       inkscape:persp3d-origin="290 : 193.33333 : 1"
       id="perspective12" />
  </defs>
  <g
     id="g1327">
    <path
       d="M 66.275,1.768 C 24.94,1.768 1.704,23.139 1.704,66.804 L 1.704,516.927 C 1.704,557.771 22.598,579.156 63.896,579.156 L 515.92,579.156 C 557.227,579.156 578.149,558.84 578.149,516.927 L 578.149,66.804 C 578.149,24.203 557.227,1.768 514.627,1.768 C 514.624,1.768 66.133,1.625 66.275,1.768 z"
       style="fill:#111111;stroke:#eeeeee;stroke-width:3.40799999"
       id="path1329" />
  </g>
  <g
     id="g5"
     transform="matrix(12.601673,2.7725659,-2.7725659,12.601673,281.54003,84.038138)"
     style="fill:none;stroke:#ffffff;stroke-opacity:1">
    <path
       inkscape:connector-curvature="0"
       class="st0"
       d="m 13.6,7.5 0,0 c 0,1.9 1.6,3.5 3.6,3.5 2,0 3.6,-1.6 3.6,-3.5 l 0,0"
       id="path7"
       style="fill:none;stroke:#ffffff;stroke-opacity:1" />
  </g>
  <g
     id="g9"
     transform="matrix(12.601673,2.7725659,-2.7725659,12.601673,281.54003,84.038138)"
     style="fill:#ffffff;fill-opacity:1;stroke:none">
    <path
       inkscape:connector-curvature="0"
       class="st0"
       d="m 3.2,7.5 0,0 c 0,1.9 1.6,3.5 3.6,3.5 2,0 3.6,-1.6 3.6,-3.5 l 0,0"
       id="path11"
       style="fill:none;stroke:#ffffff;stroke-opacity:1" />
  </g>
  <path
     inkscape:connector-curvature="0"
     d="m 432.76012,117.30892 c -90.73204,-19.962466 -165.36017,30.99775 -176.17318,80.14428 -3.88161,17.64234 3.27603,27.14415 19.65823,30.74848 15.12198,3.32708 27.9759,-7.05655 30.74845,-19.65821 19.13072,-86.95156 125.7665,-91.23455 125.7665,-91.23455 0,0 -44.73644,23.18651 -60.49001,118.80806 -1.23514,11.61878 10.83704,28.80769 27.21922,32.41203 16.38217,3.60433 34.554,-6.9304 38.3095,-17.99468 26.26329,-89.34576 -5.03871,-133.22541 -5.03871,-133.22541 0,0 96.93179,39.82287 75.86028,135.5956 -4.43611,20.16268 8.31672,28.25318 19.65822,30.74848 15.12203,3.32708 27.14414,-3.27604 30.74848,-19.65823 10.81301,-49.14652 -35.53492,-126.72336 -126.26698,-146.68585 z"
     id="path13"
     style="fill:#ffffff;fill-opacity:1;stroke:none" />
  <path
     style="fill:#ffffff;fill-opacity:1;stroke:none"
     d="m 395.20516,227.95152 24.28968,5.34411 -52.27787,237.60973 c 0,0 -2.97889,6.63561 -13.63637,3.78949 -10.65747,-2.84613 -10.65331,-9.1336 -10.65331,-9.1336 z"
     id="rect15"
     inkscape:connector-curvature="0"
     sodipodi:nodetypes="ccczcc" />
  <polyline
     transform="matrix(9.3294529,0,0,9.163198,36.310216,225.05323)"
     style="fill:none;stroke:#ffffff;stroke-width:2.03620005;stroke-linecap:round;stroke-linejoin:round;stroke-miterlimit:10;stroke-opacity:1"
     points="  1,14 13,2 25,14 "
     id="polyline3" />
  <path
     inkscape:connector-curvature="0"
     d="m 157.5931,281.78697 -92.040427,88.78896 0,81.21895 c 0,13.74477 8.283641,24.99047 18.408085,24.99047 l 36.816172,0 c 0,-29.98854 0,-113.57525 0,-113.57525 l 73.63235,0 c 0,0 0,83.58671 0,113.57525 l 36.81618,0 c 10.12444,0 18.40809,-11.2457 18.40809,-24.99047 l 0,-81.21895 z"
     id="path5"
     style="fill:#ffffff;fill-opacity:1;stroke:#ffffff;stroke-width:0.82830113;stroke-opacity:1"
     sodipodi:nodetypes="ccssccccsscc" />
</svg>

<svg width="580" height="580" viewBox="0 0 580 580" fill="none" xmlns="http://www.w3.org/2000/svg">
<g clip-path="url(#clip0)">
<path d="M66.2751 1.76815C24.9401 1.76815 1.7041 23.1391 1.7041 66.8041V516.927C1.7041 557.771 22.5981 579.156 63.8961 579.156H515.92C557.227 579.156 578.149 558.84 578.149 516.927V66.8041C578.149 24.2031 557.227 1.76815 514.627 1.76815C514.624 1.76815 66.1331 1.62515 66.2751 1.76815Z" fill="#111111" stroke="#EEEEEE" stroke-width="3.408"/>
<path d="M432.129 216.258C426.861 240.201 442.588 264.8 467.791 270.345C492.994 275.89 517.593 260.163 522.861 236.22" stroke="white" stroke-width="12.9031"/>
<path d="M301.071 187.423C295.803 211.366 311.53 235.965 336.733 241.51C361.937 247.055 386.535 231.329 391.803 207.385" stroke="white" stroke-width="12.9031"/>
<path d="M432.76 117.309C342.028 97.3464 267.399 148.307 256.586 197.453C252.705 215.095 259.862 224.597 276.245 228.202C291.367 231.529 304.221 221.145 306.993 208.543C326.124 121.592 432.76 117.309 432.76 117.309C432.76 117.309 388.023 140.495 372.27 236.117C371.034 247.736 383.107 264.925 399.489 268.529C415.871 272.133 434.043 261.599 437.798 250.534C464.062 161.188 432.76 117.309 432.76 117.309C432.76 117.309 529.691 157.132 508.62 252.904C504.184 273.067 516.937 281.158 528.278 283.653C543.4 286.98 555.422 280.377 559.027 263.995C569.84 214.848 523.492 137.271 432.76 117.309V117.309Z" fill="white"/>
<path d="M395.206 227.952L419.495 233.296L367.217 470.906C367.217 470.906 364.239 477.541 353.581 474.695C342.924 471.849 342.928 465.561 342.928 465.561L395.206 227.952Z" fill="white"/>
<path d="M45.6396 353.338L157.593 243.379L269.547 353.338" stroke="white" stroke-width="18.8266" stroke-miterlimit="10" stroke-linecap="round" stroke-linejoin="round"/>
<path d="M157.593 281.787L65.5527 370.576V451.795C65.5527 465.54 73.8364 476.785 83.9608 476.785H120.777C120.777 446.797 120.777 363.21 120.777 363.21H194.409C194.409 363.21 194.409 446.797 194.409 476.785H231.226C241.35 476.785 249.634 465.54 249.634 451.795V370.576L157.593 281.787Z" fill="white" stroke="white" stroke-width="0.828301"/>
</g>
<defs>
<clipPath id="clip0">
<path d="M0 0H580V580H0V0Z" fill="white"/>
</clipPath>
</defs>
</svg>
